!!!OTL: Jedyny synu oyca
**kern
*staff1
=1-
*clefC2
*k[b-]
*met(c|)
*M2/2
1f
2f\
2f\
=2
1c
2f\
1f
2c/
2B-/
2d/
=3
1c
0f
=4
!!linebreak:original
1f
2f\
2f\
=5
1B-
1f
=6
2f\
2e-\
2e-i\
2f\
=7
1c
0f
=8
1f
2B-/
2d/
=9
1c
0f
==
*-
!!title: @{OTL}, @{GTL}, ed. @{ENC}
!!!pag:
!!!GTL: Hymnbook D
!!!EFL: 
!!!YEM: Creative Commons CC/BY/NC/SA 4.0
!!!ENC: Marcin Konik
!!!END: 2015-0m-dd
!!!EED: Marcin Konik
!!!EEV: 
!!!ONB: Encoded in vim by Marcin Konik
!!!CharacterEncoding: utf-8
!!!RDF**kern: l=long note in original notation
!!!RDF**kern: i=editorial accidental
!!muse2ps: z14jc180F
!!!COM: Anonim
!!!CDT: [?]
!!!TXO: Polish
!!!ODT: 
!!!GTL: Hymnbook D
!!!ARL: Opactwo św. Wojciecha, Staniątki 
!!!voices:	1
